/* XPM */
static char *d8dd14d502ec443fb97ea9ca287745e1gUZeWY14zwzircXE[] = {
/* columns rows colors chars-per-pixel */
"67 64 234 2 ",
"   c #000000",
".  c #090204",
"X  c #0D0A02",
"o  c #140A01",
"O  c #151105",
"+  c #000219",
"@  c #0D1316",
"#  c #141616",
"$  c #1D1D1B",
"%  c #241804",
"&  c #211F1B",
"*  c #2E2603",
"=  c #25231B",
"-  c #000025",
";  c #000B25",
":  c #00012D",
">  c #000D2C",
",  c #01142C",
"<  c #0A1628",
"1  c #191E27",
"2  c #131D2D",
"3  c #000034",
"4  c #000D33",
"5  c #001735",
"6  c #101F34",
"7  c #1C2028",
"8  c #1C232C",
"9  c #0B2039",
"0  c #1D2533",
"q  c #252525",
"w  c #292624",
"e  c #2B2A26",
"r  c #21242A",
"t  c #25282C",
"y  c #2D2D2D",
"u  c #322E25",
"i  c #3D3725",
"p  c #3E3826",
"a  c #32312E",
"s  c #393428",
"d  c #252A34",
"f  c #272D35",
"g  c #2B313A",
"h  c #333435",
"j  c #343639",
"k  c #3C3C3C",
"l  c #513B0A",
"z  c #423B27",
"x  c #503E34",
"c  c #4E4000",
"v  c #584700",
"b  c #56491D",
"n  c #6A5504",
"m  c #6D5B00",
"M  c #725C00",
"N  c #6B581E",
"B  c #4D4327",
"V  c #574B28",
"C  c #5F5127",
"Z  c #4A423D",
"A  c #554B3A",
"S  c #59523C",
"D  c #7B4C28",
"F  c #645624",
"G  c #6D5C24",
"H  c #65582C",
"J  c #705E26",
"K  c #644835",
"L  c #774F31",
"P  c #685B38",
"I  c #756529",
"U  c #6E633B",
"Y  c #746234",
"T  c #776C35",
"R  c #796936",
"E  c #786839",
"W  c #000F43",
"Q  c #011B43",
"!  c #072543",
"~  c #192943",
"^  c #093642",
"/  c #262C42",
"(  c #233044",
")  c #2B3342",
"_  c #323642",
"`  c #343A42",
"'  c #3B3D42",
"]  c #383F4F",
"[  c #3D4242",
"{  c #434342",
"}  c #4B4A46",
"|  c #55544E",
" . c #7F765E",
".. c #656565",
"X. c #686969",
"o. c #6A6A6A",
"O. c #73716E",
"+. c #6E7178",
"@. c #757575",
"#. c #73767B",
"$. c #777879",
"%. c #7A7A7A",
"&. c #994D1F",
"*. c #9B511F",
"=. c #A75D1B",
"-. c #8F700D",
";. c #836815",
":. c #8D7616",
">. c #AF691D",
",. c #89562A",
"<. c #965824",
"1. c #846B24",
"2. c #8B7527",
"3. c #937A23",
"4. c #937B2D",
"5. c #826B33",
"6. c #8B7334",
"7. c #837239",
"8. c #A46D22",
"9. c #E05E3E",
"0. c #D0703B",
"q. c #F26F3C",
"w. c #F4763B",
"e. c #F37B3A",
"r. c #B53A42",
"t. c #F13143",
"y. c #F43D42",
"u. c #877349",
"i. c #847758",
"p. c #CE4442",
"a. c #F34342",
"s. c #F14D41",
"d. c #F65140",
"f. c #9F850E",
"g. c #B28E00",
"h. c #B89400",
"j. c #A68719",
"k. c #B78918",
"l. c #BB9E14",
"z. c #B5931F",
"x. c #B9971F",
"c. c #BC9A1E",
"v. c #BCA00E",
"b. c #9C8225",
"n. c #9B822C",
"m. c #988639",
"M. c #A18522",
"N. c #AC8C21",
"B. c #A58A28",
"V. c #B68722",
"C. c #B59420",
"Z. c #B89620",
"A. c #BC9A21",
"S. c #B79A2B",
"D. c #B5992D",
"F. c #A58D32",
"G. c #A98F31",
"H. c #A79334",
"J. c #AA9335",
"K. c #B19732",
"L. c #BEA226",
"P. c #BCA12A",
"I. c #BBA132",
"U. c #C39F00",
"Y. c #C39E1C",
"T. c #C7A718",
"R. c #D4B41D",
"E. c #C38E22",
"W. c #C19D21",
"Q. c #CD9922",
"!. c #F58539",
"~. c #F39036",
"^. c #C4A223",
"/. c #C7A625",
"(. c #CCAB24",
"). c #CCAE2B",
"_. c #D3A623",
"`. c #CFB02A",
"'. c #D4B425",
"]. c #DAB623",
"[. c #DDB925",
"{. c #D3B52E",
"}. c #DBBB2B",
"|. c #C8AD31",
" X c #E2BE24",
".X c #E1BB28",
"XX c #F3A132",
"oX c #E6C01A",
"OX c #E6C225",
"+X c #EAC525",
"@X c #EECA26",
"#X c #E8C629",
"$X c #F3CE26",
"%X c #F8CF26",
"&X c #F6D126",
"*X c #FAD425",
"=X c #FEDA24",
"-X c #FDD728",
";X c #FFDB28",
":X c #FFE029",
">X c #A79655",
",X c #8B8264",
"<X c #9A8D64",
"1X c #918973",
"2X c #CCB043",
"3X c #CDB56F",
"4X c #7F8185",
"5X c #878786",
"6X c #8B8B8A",
"7X c #999589",
"8X c #939393",
"9X c #95979B",
"0X c #9A9A9B",
"qX c #A3A3A3",
"wX c #ABABAB",
"eX c #AFAFB2",
"rX c #B4B3B3",
"tX c #B9B8B6",
"yX c #BDBDBD",
"uX c #C0C0BE",
"iX c #BFBFC0",
"pX c #C3C3C3",
"aX c #C9C9C7",
"sX c #CBCBCB",
"dX c #D0D0CF",
"fX c #D5D4D5",
"gX c #DBDBDC",
"hX c #E7E1D2",
"jX c #E3E3E3",
"kX c #EDEDED",
"lX c #F4EEE1",
"zX c #F3F4F4",
"xX c #FDFDFD",
"cX c white",
/* pixels */
"cXcXcXcXcXcXcXcXcXcXcXcXcXcXcXcXcXcXcXX.  y q y   qXcXcXcXcXcXcXcXcXcXcXcXcXcXcXcXcXcXcXcXcXcXcXcXcXcXcXcXcXcXcXcXcXcXcXcXcXcXcXcXcXcX",
"cXcXcXcXcXcXcXcXcXcXcXcXcXcXcXcXcXcXcXX.  y q y   qXcXcXcXcXcXcXcXcXcXcXcXcXcXcXcXcXcXcXcXcXcXcXcXcXcXcXcXcXcXcXcXcXcXcXcXcXcXcXcXcXcX",
"cXcXcXcXcXcXcXcXcXcXcXcXcXcXcXcXcXcXcXX.  y q y   qXcXcXcXcXcXcXcXcXcXcXcXcXcXcXcXcXcXcXcXcXcXcXcXcXcXcXcXcXcXcXcXcXcXcXcXcXcXcXcXcXcX",
"cXcXcXcXcXcXcXcXcXcXcXcXcXcXcXzX%.$.$.} k k y y   qXcXcXcXcXcXcXcXcXcXcXcXcXcXcXcXcXcXcXcXcXcXcXcXcXcXcXcXcX0XX.%.$.%.X.rXcXcXcXcXcXcX",
"cXcXcXcXcXcXcXcXcXcXcXcXcXcXcXkX#     k { { y y   qXcXcXcXcXcXcXcXcXcXcXcXcXcXcXcXcXcXcXcXcXcXcXcXcXcXcXcXcXO.  O   X   6XcXcXcXcXcXcX",
"cXcXcXcXcXcXcXcXcXcXcXcXcXcXcXkXk q y k { { y y   qXcXcXcXcXcXcXcXcXcXcXcXcXcXcXcXcXcXcXcXcXcXcXcXcXcXcXcXcX#.  4 > 0   9XcXcXcXcXcXcX",
"cXcXcXcXcXcXcXcXcXcXcXcXcXcXcXkXh $ t k { { y y   qXcXcXcXcXcXcXcXcXcXcXcXcXcXcXcXcXcXcXcXcXcXcXcXcXcXqX8X9X>Xl.P.M.2.-.,X0X8XrXcXcXcX",
"cXcXcXcXcXcXcXcXcXcXcXcXcXcXcXkXj = e x { { a y   qXcXcXcXcXcXcXcXcXcXcXcXcXcXcXcXcXcXcXcXcXcXcXcXcXzXe     R.;X-X].x./.-.    ..cXcXcX",
"cXcXcXcXcXcXcXcXcXcXcXcXcXcXcXzXd + , g ` _ y y   qXcXcXcXcXcXcXcXcXcXcXcXcXcXcXcXcXcXcXcXcXcXcXcXcXcX] - 3 ).-X&X'.N.c.2.5   #.cXcXcX",
"cXcXcXcXcXcXcXcXcXcXcXcXzXpXpXtXY N G Y R R z t   qXcXcXcXcXcXcXcXcXcXcXcXcXfXyXpXpXpXpXpXpXpXpXpXpXuXm.:.2.(. X X/.C.A.M.G n i.pXpXpX",
"cXcXcXcXcXcXcXcXcXcXcXcXjX    o x.W.c.c.c.Y.F 8   qXcXcXcXcXcXcXcXcXcXcXcXcX..                      o @X-X-X(.z.C.C.Z.C.Z.c.^.j.      ",
"cXcXcXcXcXcXcXcXcXcXcXcXjX$ f z C.Z.C.x.z.c.F 8   qXcXcXcXcXcXcXcXcXcXcXcXcX%.  h y y y y y y y 2 , y OX&X&X(.C.Z.Z.x.x.C.C.x.M.t a y ",
"cXcXcXcXcXcXcXcXcXcXcXcXjXX r i C.Z.Z.C.N.C.C 8   qXcXcXcXcXcXcXgXgXgXgXgXgXX.# h y y y y y y p I G I [.#X#X^.C.Z.Z.Z.Z.Z.C.A.M.1 q q ",
"cXcXcXcXcXcXcXcXcXcXcXcXjXX r i C.Z.x.4.5.6.B d   qXcXcXcXcXcXjX            h { { { { { { { _ U &X&X$XA.C.C.C.Z.Z.Z.Z.Z.Z.C.A.M.1 w w ",
"cXcXcXcXcXcXcXcXcXcXcXcXjXX r i C.Z.x.4.6.6.B 1   qXcXcXcXcXcXjX7 r r r r 7 k { { { { { ' { ) U $X&X$XA.C.Z.Z.Z.Z.Z.Z.Z.Z.Z.A.j.+ $ $ ",
"cXcXcXcXcXcXcXcXcXcXzXcXfXO r i C.Z.Z.4.5.6.A ' O wXcXcXcXzXcXgXi p p p p i k { { { { { { A { E $X$X@XA.C.Z.Z.Z.Z.Z.Z.Z.C.N.z.b.j k k ",
"cXcXcXcXcXcXcXcXcXpX$ } k q 1 i C.Z.Z.V y   yXcXkXcXcXcXfXa ' P OX#X#X#X#X@XR ) { { { ` P C.C.C.A.A.A.Z.Z.Z.Z.Z.Z.Z.C.A.3.y % O.zXzXzX",
"cXcXcXcXcXcXcXcXcXyX  w & e q z C.Z.Z.B t   sXcXcXcXcXcXfX  < b $X&X&X&X&X-X7.) { { { ` Y c.Z.x.C.C.C.Z.Z.Z.Z.Z.Z.Z.C.c.3.6   $.cXcXcX",
"cXcXcXcXcXcXcXcXcXiX  d < ; - w C.C.C.z :   sXcXcXcXcXcXfX  : B $X$X$X$X$X&X7.) { ' ' ) P c.C.Z.Z.Z.Z.Z.Z.Z.Z.Z.Z.Z.x.W.:.    X.cXcXcX",
"cXcXcXcXcXcXrXX.#.i.j.3.N.'.'.'.OXOXOX'.`.R.<X+.$.$.$.#.,XR.`.'.$X$X$X$X$X*X7.) ' R B.n.B.x.Z.Z.Z.Z.Z.Z.Z.Z.Z.C.A.1.B l 1XgXfXjXcXcXcX",
"cXcXcXcXcXcX6X    M ^.x.(.-X*X*X&X&X&X*X*X;X;.  o       m ;X*X*X$X$X$X$X$X&X7.` ' 6.Y.x.x.Z.Z.Z.Z.Z.Z.Z.Z.Z.C.C.c.J 5   9XcXcXcXcXcXcX",
"cXcXcXcXcXcX9X  3 F x.N.W.$X$X$X$X$X$X$X$X&XI : > , y : I &X$X$X$X$X$X*X*X=XR ~ ( 5.c.C.C.Z.Z.Z.Z.Z.Z.Z.Z.Z.A.c.^.m     6XcXcXcXcXcXcX",
"cXcXcXwX6X9X>Xl.S./. X[. X$X$X$X$X$X$X$X$X&X(.S.L.4.H C n.&X$X$X$X$X$XH.m.m.4.4.4.B.x.C.Z.Z.Z.Z.Z.Z.Z.Z.C.Z.1.H n 7XpXrXfXcXcXcXcXcXcX",
"cXcXcX..    T.:X*X*X&X&X&X$X$X$X$X$X$X$X$X$X*X-X=X).6.6.K.&X$X$X$X$X$XS ! ! b.Y.x.x.Z.Z.Z.Z.Z.Z.Z.Z.Z.C.C.x.V 9   pXcXcXcXcXcXcXcXcXcX",
"cXcXcX$.O 5 P.*X@X$X$X$X$X$X$X$X$X$X$X&X&X&X$X$X&X/.Y Y F.&X$X&X*X*X&XU [ { B.Y.A.Z.x.Z.Z.Z.Z.Z.Z.Z.Z.A.c.^.v     rXcXcXcXcXcXcXcXcXcX",
"cXcXcX$.  : L.-X$X$X$X$X$X$X$X$X$X$X$X X[.[.@X$X&X}.D.D.).&X$X@X`.`.).A g h I 3.1.M.Z.C.Z.Z.Z.Z.Z.Z.C.3.2.:.1X9X6XfXcXcXcXcXcXcXcXcXcX",
"cXcXcX@.o > L.-X$X$X$X$X$X$X$X$X$X$X$X^.C.C.[.&X$X&X*X*X&X$X&XOX5.5.5.u 1 q 1 8 : I c.C.C.Z.Z.Z.C.Z.C.u <   fXcXcXcXcXcXcXcXcXcXcXcXcX",
"cXcXcX+.  : A.-X$X$X$X$X$X$X$X$X&X&X&XU.g.g.oX;X*X&X$X$X$X$X&XOX5.5.5.s 7 w X     ;.^.c.A.Z.Z.Z.C.Z.C.u 2   fXcXcXcXcXcXcXcXcXcXcXcXcX",
"fXfXgX,Xm H (.*X$X$X$X$X$X$X$X$XOXOXOX3X3X3X2XR.).OX&X$X$X$X&X#XF.G.F.z 7 & ..%.#.u.j.b.M.Z.Z.Z.Z.Z.C.F V c rXgXfXkXcXcXcXcXcXcXcXcXcX",
"      '.-X&X&X$X$X$X$X$X$X$X&X@XZ.C.h.lXcXcX4X  : b.-X$X$X$X$X$X&X*X&XV 1   fXcXcXqX  5 F A.C.Z.Z.Z.Z.Z.Z.W.v +   tXcXcXcXcXcXcXcXcXcX",
"y y < '.*X$X$X&X&X&X$X$X$X$X&X@XZ.Z.h.lXcXcX5X  > B.-X$X$X$X$X$X$X$X$XV ,   fXcXcXqX  2 N A.Z.Z.Z.Z.Z.C.C.c.C d   yXcXcXcXcXcXcXcXcXcX",
"q w ; '.*X$X$X@X@X$X$X$X$X$X&X@XA.A.h.hXzXzX%.  : B.-X$X$X$X$X$X$X&X$XF a * aXzXzX0X$ ` P z.C.C.Z.Z.Z.Z.C.A.C 8   yXcXcXcXcXcXcXcXcXcX",
"q w ; '.&X&XS.6.6.P.*X$X$X$X$X$X@X@X$XU g k k { ~ H.-X$X$X$X$X$X$X$X$X#XOX@XR _ & wXzXzXyXo a V Z.Z.Z.Z.C.A.C 8   yXcXcXcXcXcXcXcXcXcX",
"y y < '.&X&XD.5.5.D.*X$X$X$X$X$X&X&X&XF + = j } / J.-X$X$X$X$X&X$X$X$X&X&X-XI >   rXcXcXsX  8 B Z.Z.Z.Z.C.c.C d   yXcXcXcXcXcXcXcXcXcX",
"      '.-X-XD.R R D.*X$X$X$X$X$X$X$X$XC : < g [ ! H.=X&X&X$X$X$X$X$X$X$X$X&XJ 3   eXcXcXsX  2 z Z.Z.Z.Z.Z.W.v +   tXcXcXcXcXcXcXcXcXcX",
"fXfXgX,Xm H A.OX}.#X&X$X$X$X$X$X$X$X$X'.(.'.0.p.p.9.e.q.~.&X$X$X$X$X$X$X$X&X[.).R.>X+.$. .f.b.M.C.Z.C.F V c rXgXfXkXcXcXcXcXcXcXcXcXcX",
"cXcXcX+.  : L.-X&X&X$X$X$X$X$X$X$X$X$X*X*X=X!.y.d.a.a.t.q.&X$X$X$X$X$X$X$X$X&X&X;Xf.    v W.c.A.C.Z.C.s 0   fXcXcXcXcXcXcXcXcXcXcXcXcX",
"cXcXcX#.  : L.=X&X*X&X&X&X$X$X$X$X$X$X$X$X&Xe.y.s.s.s.a.w.&X$X$X$X$X$X$X$X$X&X&X=XB.: 8 F c.C.Z.c.W.x.%     sXcXcXcXcXcXcXcXcXcXcXcXcX",
"8X8X8Xu.;.1.4.m.m.K.'.(.].&X$X$X$X$X$X$X$X&Xe.y.s.s.s.y.w.&X$X&X$X$X$X$X$X&X_.E.Q.5.f h K 8.8.8.G N Y rXpXyXkXcXcXcXcXcXcXcXcXcXcXcXcX",
"      -.k.k.P ! ! Y x.N.W.$X$X$X$X$X$X$X$X&X!.a.s.s.s.y.w.&X$X&X$X$X$X$X$X&XV.&.=.L { { K <.<.D , + d zXcXcXcXcXcXcXcXcXcXcXcXcXcXcXcX",
"      -.k.k.Y { ' 7.T.A.(.*X&X&X&X&X&X&X$X&Xw.t.y.a.d.y.w.&X$X&X$X$X$X$X$X&XV.&.=.K ! ~ x <.<.,.8 # h zXcXcXcXcXcXcXcXcXcXcXcXcXcXcXcX",
"8X8X8Xu.;.;.V h g H 3.1.M. X[.[.[.[.[.@X$X&XXX!.~.0.r.r.0.&X$X&X$X$X$X$X$X&X_.E.Q.G.m.m.6.L L L x l V rXyXtXkXcXcXcXcXcXcXcXcXcXcXcXcX",
"cXcXcX#.  0 r y y r 2 : B z.z.C.C.C.z.OX&X$X&X&X=XJ.^ ^ T *X$X&X$X$X$X$X$X$X&X*X*X*X&X=X).~ [ Z <.<.<.o     sXcXcXcXcXcXcXcXcXcXcXcXcX",
"cXcXcXX.  X             l W.A.A.Z.Z.C.#X*X&X&X&X=XK.Q / E *X$X&X*X*X*X&X$X$X$X$X$X$X&X-X|.) { A <.<.<.% @   sXcXcXcXcXcXcXcXcXcXcXcXcX",
"cXcXcX0XX.%.$.$.$.$.$.#.i.j.b.M.Z.Z.C.[.OXOX}.{.}.J.E E m.&X$X@X{.{.{.@X&X$X$X$X&X+X.X+XD.) { Z D D D O.$.X.gXcXcXcXcXcXcXcXcXcXcXcXcX",
"cXcXcXcXcXcXcXcXcXcXcXcXjX  , u C.x.C.C.C.x.P ) Q F.=X$X&X$X&X}.` _ ` }.&X$X$X$X*XQ.&.=.,.' { k t 1 j zXcXcXcXcXcXcXcXcXcXcXcXcXcXcXcX",
"cXcXcXcXcXcXcXcXcXcXcXcXjXO r p C.Z.C.Z.C.c.U ` ~ J.=X$X&X&X*XOX[ ' [ .X&X$X$X$X*XQ.*.=.,.[ { k & O a kXcXcXcXcXcXcXcXcXcXcXcXcXcXcXcX",
"cXcXcXcXcXcXcXcXcXcXcXcXjXX r i C.Z.C.Z.C.c.R } { H.$X#X#X#X@X}.S S S OX&X$X$X$X*X_.=.>.,.' Z [ { k } kXcXcXcXcXcXcXcXcXcXcXcXcXcXcXcX",
"cXcXcXcXcXcXcXcXcXcXcXcXjXX r i C.Z.C.Z.Z.C.[.#X$XJ.' S A A } U #X#X#X$X$X$X$X$X$X$X+X%XL.> O ..zXzXzXcXcXcXcXcXcXcXcXcXcXcXcXcXcXcXcX",
"cXcXcXcXcXcXcXcXcXcXcXcXjX# t z C.Z.C.Z.Z.C. X&X=XK.~ { ' { _ P &X&X&X$X$X$X$X$X$X&X$X-X/.: . X.cXcXcXcXcXcXcXcXcXcXcXcXcXcXcXcXcXcXcX",
"cXcXcXcXcXcXcXcXcXcXcXcXjX    * C.A.Z.Z.Z.C. X&X-XJ.Q ' ` ` ( S $X$X$X$X$X$X$X$X$X&X&X-X/.: o ..cXcXcXcXcXcXcXcXcXcXcXcXcXcXcXcXcXcXcX",
"cXcXcXcXcXcXcXcXcXcXcXcXzXfXgXsXC b V N.A.C.^.(./.(.{.{.{.{.{.{.$X$X$X$X$X$X$X$X*XI.U 7.P r   ..cXcXcXcXcXcXcXcXcXcXcXcXcXcXcXcXcXcXcX",
"cXcXcXcXcXcXcXcXcXcXcXcXcXcXcXzXj 1 0 M.x.C.C.C.z.'.-X&X&X*X*X&X$X$X$X$X$X$X$X$X-XF.W ` g h # X.cXcXcXcXcXcXcXcXcXcXcXcXcXcXcXcXcXcXcX",
"cXcXcXcXcXcXcXcXcXcXcXcXcXcXcXkX      j.^.c.A.W.x.[.-X*X&X$X$X$X$X$X$X$X$X$X$X$X=XJ.) } a     | cXcXcXcXcXcXcXcXcXcXcXcXcXcXcXcXcXcXcX",
"cXcXcXcXcXcXcXcXcXcXcXcXcXcXcXcXpXpXpXi.n J G G G 1.3.2.N.&X$X$X$X$X$X$X$X$X$X$X-XB.5 = X.pXyXsXcXcXcXcXcXcXcXcXcXcXcXcXcXcXcXcXcXcXcX",
"cXcXcXcXcXcXcXcXcXcXcXcXcXcXcXcXcXcXcXX.+ 0 2 2 2 , , : H &X$X$X$X$X$X$X$X$X$X@X*XB.5   6XcXcXcXcXcXcXcXcXcXcXcXcXcXcXcXcXcXcXcXcXcXcX",
"cXcXcXcXcXcXcXcXcXcXcXcXcXcXcXcXcXcXcX|                 m ;X-X-X-X-X-X&X&X&X*X*X:Xf.    $.cXcXcXcXcXcXcXcXcXcXcXcXcXcXcXcXcXcXcXcXcXcX",
"cXcXcXcXcXcXcXcXcXcXcXcXcXcXcXcXcXcXcXwX8X9X9X9X9X9X9X9X7Xl.S.A.A.A.A.@X&X&X(.S.v.<X9X8XtXcXcXcXcXcXcXcXcXcXcXcXcXcXcXcXcXcXcXcXcXcXcX",
"cXcXcXcXcXcXcXcXcXcXcXcXcXcXcXcXcXcXcXcXcXcXcXcXcXcXcXcXgX  4 : - - - [.&X&XH 3   rXcXcXcXcXcXcXcXcXcXcXcXcXcXcXcXcXcXcXcXcXcXcXcXcXcX",
"cXcXcXcXcXcXcXcXcXcXcXcXcXcXcXcXcXcXcXcXcXcXcXcXcXcXcXcXdX  . X e e e OX-X;XM     wXcXcXcXcXcXcXcXcXcXcXcXcXcXcXcXcXcXcXcXcXcXcXcXcXcX",
"cXcXcXcXcXcXcXcXcXcXcXcXcXcXcXcXcXcXcXcXcXcXcXcXcXcXcXcXgXX.%.X.q q q L.'.R.,X#.X.pXcXcXcXcXcXcXcXcXcXcXcXcXcXcXcXcXcXcXcXcXcXcXcXcXcX",
"cXcXcXcXcXcXcXcXcXcXcXcXcXcXcXcXcXcXcXcXcXcXcXcXcXcXcXcXcXcXcXkXq q q , <   fXcXcXcXcXcXcXcXcXcXcXcXcXcXcXcXcXcXcXcXcXcXcXcXcXcXcXcXcX",
"cXcXcXcXcXcXcXcXcXcXcXcXcXcXcXcXcXcXcXcXcXcXcXcXcXcXcXcXcXcXcXjXq q q w y   fXcXcXcXcXcXcXcXcXcXcXcXcXcXcXcXcXcXcXcXcXcXcXcXcXcXcXcXcX",
"cXcXcXcXcXcXcXcXcXcXcXcXcXcXcXcXcXcXcXcXcXcXcXcXcXcXcXcXcXcXcXjXq q q q y   fXcXcXcXcXcXcXcXcXcXcXcXcXcXcXcXcXcXcXcXcXcXcXcXcXcXcXcXcX"
};
