/* XPM */
static char *def5fbc0bf9d4b9ee3404df203ddf112OkO0BhI5kz0bpZHb[] = {
/* columns rows colors chars-per-pixel */
"64 64 85 1 ",
"  c #2100FF",
". c #2403FF",
"X c #2707FF",
"o c #2909FF",
"O c #2B0CFF",
"+ c #2D0EFF",
"@ c #3011FF",
"# c #3517FF",
"$ c #3618FF",
"% c #381BFF",
"& c #3A1DFF",
"* c #3C1FFF",
"= c #3D20FF",
"- c #4327FF",
"; c #4428FF",
": c #492EFF",
"> c #4D33FF",
", c #4F35FF",
"< c #5036FF",
"1 c #533AFF",
"2 c #543BFF",
"3 c #573EFF",
"4 c #5A42FF",
"5 c #5C44FF",
"6 c #614AFF",
"7 c #664FFF",
"8 c #6750FF",
"9 c #6953FF",
"0 c #6B55FF",
"q c #6D57FF",
"w c #6E58FF",
"e c #705BFF",
"r c #735EFF",
"t c #745FFF",
"y c #7560FF",
"u c #7965FF",
"i c #7E6BFF",
"p c #7F6CFF",
"a c #826FFF",
"s c #8573FF",
"d c #8977FF",
"f c #8978FF",
"g c #8C7BFF",
"h c #8E7DFF",
"j c #907FFF",
"k c #9181FF",
"l c #9585FF",
"z c #998AFF",
"x c #9A8BFF",
"c c #9D8EFF",
"v c #9E90FF",
"b c #A092FF",
"n c #A395FF",
"m c #A497FF",
"M c #A699FF",
"N c #A79AFF",
"B c #AA9EFF",
"V c #ADA1FF",
"C c #B1A5FF",
"Z c #B3A8FF",
"A c #B5AAFF",
"S c #BEB4FF",
"D c #C1B8FF",
"F c #C4BBFF",
"G c #CAC2FF",
"H c #CEC7FF",
"J c #D2CBFF",
"K c #D4CEFF",
"L c #D6D0FF",
"P c #D9D4FF",
"I c #DBD6FF",
"U c #DFDAFF",
"Y c #E2DEFF",
"T c #E6E2FF",
"R c #E7E4FF",
"E c #EAE7FF",
"W c #EDEAFF",
"Q c #EEECFF",
"! c #F0EEFF",
"~ c #F2F0FF",
"^ c #F4F2FF",
"/ c #F5F4FF",
"( c #F8F7FF",
") c #FBFBFF",
"_ c #FDFDFF",
/* pixels */
"                                                                ",
"                                                                ",
"                                                                ",
"                                                                ",
"                                              9kt               ",
"                                             V___F              ",
"                                            5_____i             ",
"                                            B_____A             ",
"                                            L_____Z             ",
"                                            Q_____f             ",
"            kTEv                            )_____<             ",
"           k____M                           ______+             ",
"           !_____.                         o______              ",
"           ______X                         *_____)              ",
"           ______O                         :_____)              ",
"           ______+                         4_____/              ",
"           ______+                         9_____^              ",
"           ______o                         e_____!              ",
"           ______.                         w_____Q              ",
"           ______X                         w_____Q              ",
"           ______O                         e_____W              ",
"           ______+                         y_____W              ",
"           ______+                         u_____W              ",
"           ______o                         u_____W              ",
"           ______                          w_____! &            ",
"           ______X                         5________Ee          ",
"           ______X                         <__________;         ",
"          X______                          5__________a         ",
"          ,______WWWWQQQWWQQWWEJi          7__________u         ",
"          f______________________b         #_________E+         ",
"          C_______________________#         _______)F>          ",
"          l_______________________;         ______&             ",
"          >______________________T          )_____&             ",
"           qQ___________________Q6          )_____%             ",
"             -0eyuuytyuuuuryyuu5X    5DWEz  )_____=             ",
"                                  3J)_____G )_____&             ",
"                                l~_________>)_____%             ",
"                             oC)___________j______&             ",
"                           =G______________M/_____&             ",
"                 ,sy     8Y________________vH____)              ",
"                s___I$ m/__________________z6____d              ",
"               @_____E_____________)ST_____l ,cM7               ",
"               1_________________!h  T_____k                    ",
"               3_______________T8    T_____f                    ",
"               >_____________J>      T_____g                    ",
"               -__________(VX        E_____h                    ",
"               *________Eu           E_____h1=                  ",
"               &______0&             T________n                 ",
"               &______               T_________u                ",
"               %______              @/_________Z                ",
"               &_____)            fR___________b                ",
"               *_____)         pU______________:                ",
"               -_____)     ;cT_______________U,                 ",
"               ,_____)2hDE_________________I4                   ",
"               2________________________/C+                     ",
"               #______________________K7                        ",
"                k__________________Ef                           ",
"                 g______________Tz+                             ",
"                  I_________/Ji                                 ",
"                  ;S)_(WKmw+                                    ",
"                                                                ",
"                                                                ",
"                                                                ",
"                                                                "
};
