/* XPM */
static char *_f45ed0b722b4de3d28fb78849bfaaacq16CJDPcQTxyFQe5[] = {
/* columns rows colors chars-per-pixel */
"64 64 60 1 ",
"  c #00FFE9",
". c #04FFE9",
"X c #0AFFEA",
"o c #0CFFEA",
"O c #10FFEA",
"+ c #15FFEB",
"@ c #1FFFEC",
"# c #21FFEC",
"$ c #24FFEC",
"% c #28FFEC",
"& c #33FFED",
"* c #34FFEE",
"= c #3BFFEE",
"- c #3FFFEE",
"; c #40FFEF",
": c #44FFEF",
"> c #4AFFEF",
", c #4FFFF0",
"< c #52FFF0",
"1 c #5AFFF1",
"2 c #5FFFF1",
"3 c #62FFF1",
"4 c #64FFF2",
"5 c #71FFF3",
"6 c #76FFF3",
"7 c #79FFF3",
"8 c #7AFFF4",
"9 c #7EFFF4",
"0 c #83FFF4",
"q c #86FFF5",
"w c #8AFFF5",
"e c #8DFFF5",
"r c #92FFF6",
"t c #94FFF6",
"y c #99FFF6",
"u c #9EFFF7",
"i c #A1FFF7",
"p c #A7FFF7",
"a c #A9FFF8",
"s c #AEFFF8",
"d c #B0FFF8",
"f c #B4FFF9",
"g c #B8FFF9",
"h c #BFFFF9",
"j c #C1FFFA",
"k c #C4FFFA",
"l c #CCFFFB",
"z c #D1FFFB",
"x c #D5FFFB",
"c c #D7FFFC",
"v c #DBFFFC",
"b c #DFFFFC",
"n c #E2FFFC",
"m c #E6FFFD",
"M c #E8FFFD",
"N c #EFFFFE",
"B c #F2FFFE",
"V c #F7FFFE",
"C c #FAFFFF",
"Z c white",
/* pixels */
"                                                                ",
"                                                                ",
"                                                                ",
"                                                                ",
"                                                                ",
"                                                                ",
"                                            -#                  ",
"                                          *mZZ7                 ",
"                                          jZZZZO                ",
"                                          VZZZZ=                ",
"                                          CZZZZ&                ",
"                                          ZZZZZ@                ",
"                                          ZZZZZo                ",
"                       @%                OZZZZZ                 ",
"                      tZZf               ;ZZZZC                 ",
"                     2ZZZZ6              4ZZZZB                 ",
"                     vZZZZp              0ZZZZm                 ",
"                     ZZZZZ9              yZZZZv                 ",
"                    3ZZZZZ               dZZZZl                 ",
"                    cZZZZM               jZZZZh                 ",
"                    ZZZZZq               lZZZZd                 ",
"                   qZZZZZ                xZZZZp                 ",
"                   BZZZZb                bZZZZy                 ",
"                  ;ZZZZZ3                nZZZZr                 ",
"                  xZZZZV          *gMMvd7NZZZZw                 ",
"                 oZZZZZB         +BZZZZZZZZZZZq                 ",
"                 sZZZZZZl        1ZZZZZZZZZZZZ0                 ",
"                 CZZZZZZZ4       :ZZZZZZZZZZZZ9                 ",
"                6ZZZZZZZZB        iZZZZZZZZZZZ9                 ",
"                NZZZZZZZZZ5        *37dvBZZZZZ8                 ",
"               -ZZZZZCZZZZN              MZZZZ8                 ",
"               xZZZZC0ZZZZZ>             MZZZZ8                 ",
"              OZZZZZa CZZZZn             MZZZZ8                 ",
"              kZZZZZX uZZZZZ,            MZZZZ8                 ",
"             +ZZZZZl   ZZZZZC            MZZZZ8                 ",
"             cZZZZZ$   aZZZZZx           MZZZZ8                 ",
"            <ZZZZZl     VZZZZZ-          MZZZZ8                 ",
"            lZZZZZO     :ZZZZZ,          MZZZZ8                 ",
"            bZZZZd       qZZZb.          MZZZZ8                 ",
"            eZZZM         <pr#           MZZZZ8                 ",
"             wza$                        MZZZZ8                 ",
"                                         MZZZZ8                 ",
"                                         NZZZZ5                 ",
"                                         BZZZZ4                 ",
"                                         BZZZZ3                 ",
"                                         BZZZZ3                 ",
"                                         BZZZZ3                 ",
"                                         BZZZZ1                 ",
"                                         VZZZZ<                 ",
"                                         BZZZZ3                 ",
"                                         nZZZZy                 ",
"                                         pZZZZq                 ",
"                                         $ZZZZ&                 ",
"                                          =ip;                  ",
"                                                                ",
"                                                                ",
"                                                                ",
"                                                                ",
"                                                                ",
"                                                                ",
"                                                                ",
"                                                                ",
"                                                                ",
"                                                                "
};
