/* XPM */
static char *a700df830bb841eebcb280c4deb3b7657LAeY29kxjwHrhiS[] = {
/* columns rows colors chars-per-pixel */
"64 64 68 1 ",
"  c #EA16C2",
". c #EA1BC3",
"X c #EB1EC4",
"o c #EB23C5",
"O c #EB25C6",
"+ c #EC27C7",
"@ c #EC28C7",
"# c #EC2CC8",
"$ c #ED32C9",
"% c #ED35CA",
"& c #ED39CB",
"* c #EE3DCC",
"= c #EE42CD",
"- c #EE45CE",
"; c #EF48CF",
": c #EF4BD0",
"> c #EF4FD1",
", c #EF51D2",
"< c #F053D2",
"1 c #F057D3",
"2 c #F05AD4",
"3 c #F15ED5",
"4 c #F161D6",
"5 c #F166D7",
"6 c #F168D8",
"7 c #F26ED9",
"8 c #F270DA",
"9 c #F377DB",
"0 c #F37BDD",
"q c #F37DDD",
"w c #F482DE",
"e c #F486DF",
"r c #F487E0",
"t c #F488E0",
"y c #F58EE1",
"u c #F590E2",
"i c #F595E3",
"p c #F698E4",
"a c #F69DE5",
"s c #F7A2E7",
"d c #F7A7E8",
"f c #F7A8E8",
"g c #F8ACE9",
"h c #F8B0EA",
"j c #F8B4EB",
"k c #F8B5EC",
"l c #F9BBED",
"z c #F9BFEE",
"x c #F9C2EF",
"c c #FAC6F0",
"v c #FACBF1",
"b c #FACCF2",
"n c #FBD1F3",
"m c #FBD3F4",
"M c #FBD5F4",
"N c #FBD8F5",
"B c #FCD9F5",
"V c #FCDDF6",
"C c #FCE0F7",
"Z c #FCE3F8",
"A c #FDE4F8",
"S c #FDEBFA",
"D c #FEEFFB",
"F c #FEF0FB",
"G c #FEF2FC",
"H c #FEF6FD",
"J c #FEF9FD",
"K c white",
/* pixels */
"                                                                ",
"                                                                ",
"                                      &sg4                      ",
"                     ,2              XZKKK4                     ",
"                    jKKM@            4KKKKA                     ",
"                   7KKKKy            1KKKKKo                    ",
"                   mKKKKl             KKKKK8                    ",
"                   JKKKKi    XooO&=-- FKKKKu                    ",
"                  $KKKKK$OuCJKKKKKKKKDFKKKKt                    ",
"                  0KKKKKFKKKKKKKKKKKKKKKKKK6                    ",
"                  dKKKKKKKKKKKKKKKKKKKKKKKK;                    ",
"                  hKKKKKKKKKKKKKKKKKKKKKKKK                     ",
"                  gKKKKKKKKKKKKKKJJJSDKKKKF                     ",
"                  qKKKKKKKJNqX      4KKKKKh                     ",
"                  @KKKKKl-          JKKKKKo                     ",
"                   DKKKKKb&       XFKKKKKl                      ",
"                   tKKKKKKKJbfaaamKKKKKKH                       ",
"                    AKKKKKKKKKKKKKKKKKKK1                       ",
"                    +FKKKKKKKKKKKKKKKKKu                        ",
"                     .bKKKKKKKKKKKKKKKt                         ",
"                       %xJKKKKKKKKKKV%                          ",
"                          %avVCCVMd-                            ",
"                                                                ",
"                                                                ",
"                                             X#                 ",
"                                      o2hGKKKKKS2               ",
"                  o$-39yahzbCDHJJJJJKKKKKKKKKKKKC               ",
"             -lSJKKKKKKKKKKKKKKKKKKKKKKKKKKKKKKKK+              ",
"            1KKKKKKKKKKKKKKKKKKKKKKKKKKKKKKKKKKKb               ",
"            hKKKKKKKKKKKKKKKKKKKKKKKKKKKKKKKKKJv&               ",
"            hKKKKKKKKKKKKKKKKKKKKKKKKKKJFSb7&                   ",
"            1KKKKKKKJHFDABbzsw4>KKKKKo                          ",
"             =ep2@              KKKKK+                          ",
"                                KKKKK%                          ",
"                               =KKKKK$                          ",
"                               sKKKKJ                           ",
"                               iKKKKl   3er5                    ",
"                               :KKKJnDJKKKKKG<                  ",
"                         o*9fbAHKKKKKKKKKKKKKB                  ",
"                  5bSDHJKKKKKKKKKKKKKKKKKKKKKK                  ",
"                 6KKKKKKKKKKKKKKKKKKKKKKKKKKKH                  ",
"                 kKKKKKKKKKKKKKKKKKKKKKKKKKKKv                  ",
"                 sKKKKKKKKKKKKKKKKJDbp4,KKKKK4                  ",
"                 &AKKKKKKKKHAva7&      vKKKKJ                   ",
"                  .4wq81#              KKKKKl                   ",
"                                      qKKKKK$                   ",
"                                      AKKKKS                    ",
"                                     .KKKKKe                    ",
"                                     yKKKKK                     ",
"                                     AKKKKV                     ",
"                                     KKKKK0                     ",
"                                    8KKKKK                      ",
"                                    cKKKKA                      ",
"                                    MKKKKp                      ",
"                                    uKKKK@                      ",
"                                     gKA6                       ",
"                                                                ",
"                                                                ",
"                                                                ",
"                                                                ",
"                                                                ",
"                                                                ",
"                                                                ",
"                                                                "
};
